X: 26
T: 26. O Ewigkeit, du Donnerwort
N: Derived from chor026.krn
C: Johann Sebastian Bach
%%abc-version 2.0
%%abcx-abcm2ps-target-version 5.9.1 (29 Sep 2008)
%%abc-creator hum2abc beta
%%abcx-conversion-date 2019/03/11 17:28:17
%%abc-edited-by Craig Stuart Sapp
%%humdrum-veritas 1300497390
%%humdrum-veritas-data 1371306546
%%
%%barnumbers 0
L: 1/4
M: C
%%staves [1 2 3 4]
V: 1 clef=treble
V: 2 clef=treble
V: 3 clef=treble-8
V: 4 clef=bass
K: F
[V:1] F/G/ [I:setbarnb 1]| 
[V:2] C | 
[V:3] A/B/ | 
[V:4] F, | 
[V:1] ABcc | 
[V:2] FEFA | 
[V:3] cBA/c/f | 
[V:4] F,G,A,F, | 
[V:1] de!fermata!fF/G/ | 
[V:2] B/A/G!fermata!AC | 
[V:3] fc!fermata!cA | 
[V:4] B,C!fermata!F,F,/E,/ | 
[V:1] ABcc | 
[V:2] FG-GF- | 
[V:3] ddc/B/A | 
[V:4] D,C,/B,,/A,,D, | 
[V:1] BA!fermata!GA | 
[V:2] F/E/F!fermata!EE- | 
[V:3] Bc!fermata!cA | 
[V:4] G,,A,,/B,,/!fermata!C,^C, | 
[V:1] FFBA | 
[V:2] EDD/E/F- | 
[V:3] AAGA | 
[V:4] D,/E,/F,/D,/G,D,/=C,/ | 
[V:1] G2!fermata!F :|]  
[V:2] FE!fermata!C :|]  
[V:3] dc/B/!fermata!A :|]  
[V:4] B,,C,!fermata!F,, :|]  
[V:1] c [I:setbarnb 7]| 
[V:2] F | 
[V:3] A | 
[V:4] F, | 
[V:1] GABB | 
[V:2] GG^FG- | 
[V:3] Bcde | 
[V:4] E,_E,D,^C, | 
[V:1] AA!fermata!Gc | 
[V:2] G^F!fermata!D=F | 
[V:3] A/B/c!fermata!Bc | 
[V:4] D,D,!fermata!G,,A,, | 
[V:1] defA | 
[V:2] Fc/B/ A/G/F- | 
[V:3] B/A/GF/G/A/B/ | 
[V:4] B,,C,D,/E,/F, | 
[V:1] GG!fermata!F |]  
[V:2] FE!fermata!C |]  
[V:3] c/G/ c/B/!fermata!A |]  
[V:4] C,C,!fermata!F,, |]  



